X: 7437
T: Cloudy Day
R: reel
M: 4/4
K: Edorian
FGA|BEEE BEEE|GEEE DFAG|BEEE GDAF|dABA FAGF|
BEEE BEGE|BEEE DFAG|BEEE BGAF|DFAG EFGA|
BEee BEee|BeGE DFAG|BEEE GDAF|dABA FAGF|
BEEB BGEB|BEEE DFAG|BEdB BAGF|DAGF E2 EB||
efgg bggg|dfff agfa|bebg adaf|agba fagf|
eggg bgbg|dfff afaf|geBG AdAG|FAGF E2 EB|
efgg bgag|dafg agfa|bBeg aAdf|agba fagf|
egfe bbbg|dfed aaef|geBG AdAG|FAGF E4||

